lib/flags/m/USA.svg

<svg xmlns="http://www.w3.org/2000/svg" fill="none" viewBox="0 0 20 15"><mask id="USA_svg__a" width="20" height="15" x="0" y="0" mask-type="alpha" maskUnits="userSpaceOnUse"><path fill="#fff" d="M0 0H20V15H0z"/></mask><g mask="url(#USA_svg__a)"><path fill="#E31D1C" fill-rule="evenodd" d="M0 0H20V15H0V0Z" clip-rule="evenodd"/><path fill="#F7FCFF" fill-rule="evenodd" d="M0 1.25V2.5H20V1.25H0ZM0 3.75V5H20V3.75H0ZM0 7.5V6.25H20V7.5H0ZM0 8.75V10H20V8.75H0ZM0 12.5V11.25H20V12.5H0ZM0 15V13.75H20V15H0Z" clip-rule="evenodd"/><path fill="#2E42A5" d="M0 0H11.25V8.75H0z"/><path fill="#F7FCFF" fill-rule="evenodd" d="M1.3 2.71718L1.9624 2.25577L2.47623 2.62569H2.1853L2.77364 3.14606L2.57492 3.87569H2.26369L1.96148 3.20557L1.70375 3.87569H0.935303L1.52364 4.39606L1.3 5.21719L1.9624 4.75577L2.47623 5.12569H2.1853L2.77364 5.64606L2.57492 6.37569H2.26369L1.96148 5.70557L1.70375 6.37569H0.935303L1.52364 6.89606L1.3 7.71719L1.9624 7.25577L2.60332 7.71719L2.40406 6.89606L2.91877 6.37569H2.68136L3.2124 6.00577L3.72623 6.37569H3.4353L4.02364 6.89606L3.8 7.71719L4.4624 7.25577L5.10332 7.71719L4.90406 6.89606L5.41877 6.37569H5.18136L5.7124 6.00577L6.22623 6.37569H5.9353L6.52364 6.89606L6.3 7.71719L6.9624 7.25577L7.60332 7.71719L7.40406 6.89606L7.91877 6.37569H7.68136L8.2124 6.00577L8.72623 6.37569H8.4353L9.02364 6.89606L8.8 7.71719L9.4624 7.25577L10.1033 7.71719L9.90406 6.89606L10.4188 6.37569H9.76369L9.46148 5.70557L9.20375 6.37569H8.83112L8.65406 5.64606L9.16877 5.12569H8.93136L9.4624 4.75577L10.1033 5.21719L9.90406 4.39606L10.4188 3.87569H9.76369L9.46148 3.20557L9.20375 3.87569H8.83112L8.65406 3.14606L9.16877 2.62569H8.93136L9.4624 2.25577L10.1033 2.71718L9.90406 1.89606L10.4188 1.37569H9.76369L9.46148 0.705566L9.20375 1.37569H8.4353L9.02364 1.89606L8.82492 2.62569H8.51369L8.21148 1.95557L7.95375 2.62569H7.58112L7.40406 1.89606L7.91877 1.37569H7.26369L6.96148 0.705566L6.70375 1.37569H5.9353L6.52364 1.89606L6.32492 2.62569H6.01369L5.71148 1.95557L5.45375 2.62569H5.08112L4.90406 1.89606L5.41877 1.37569H4.76369L4.46148 0.705566L4.20375 1.37569H3.4353L4.02364 1.89606L3.82492 2.62569H3.51369L3.21148 1.95557L2.95375 2.62569H2.58112L2.40406 1.89606L2.91877 1.37569H2.26369L1.96148 0.705566L1.70375 1.37569H0.935303L1.52364 1.89606L1.3 2.71718ZM8.82492 5.12569L9.02364 4.39606L8.4353 3.87569H8.72623L8.2124 3.50577L7.68136 3.87569H7.91877L7.40406 4.39606L7.58112 5.12569H7.95375L8.21148 4.45557L8.51369 5.12569H8.82492ZM7.47623 5.12569L6.9624 4.75577L6.43136 5.12569H6.66877L6.15406 5.64606L6.33112 6.37569H6.70375L6.96148 5.70557L7.26369 6.37569H7.57492L7.77364 5.64606L7.1853 5.12569H7.47623ZM5.27364 5.64606L5.07492 6.37569H4.76369L4.46148 5.70557L4.20375 6.37569H3.83112L3.65406 5.64606L4.16877 5.12569H3.93136L4.4624 4.75577L4.97623 5.12569H4.6853L5.27364 5.64606ZM5.45375 5.12569H5.08112L4.90406 4.39606L5.41877 3.87569H5.18136L5.7124 3.50577L6.22623 3.87569H5.9353L6.52364 4.39606L6.32492 5.12569H6.01369L5.71148 4.45557L5.45375 5.12569ZM3.82492 5.12569L4.02364 4.39606L3.4353 3.87569H3.72623L3.2124 3.50577L2.68136 3.87569H2.91877L2.40406 4.39606L2.58112 5.12569H2.95375L3.21148 4.45557L3.51369 5.12569H3.82492ZM7.77364 3.14606L7.57492 3.87569H7.26369L6.96148 3.20557L6.70375 3.87569H6.33112L6.15406 3.14606L6.66877 2.62569H6.43136L6.9624 2.25577L7.47623 2.62569H7.1853L7.77364 3.14606ZM4.97623 2.62569L4.4624 2.25577L3.93136 2.62569H4.16877L3.65406 3.14606L3.83112 3.87569H4.20375L4.46148 3.20557L4.76369 3.87569H5.07492L5.27364 3.14606L4.6853 2.62569H4.97623Z" clip-rule="evenodd"/></g></svg>

<svg xmlns="http://www.w3.org/2000/svg" fill="none" viewBox="0 0 20 15"><mask id="USA_svg__a" width="20" height="15" x="0" y="0" maskUnits="userSpaceOnUse"><path fill="#fff" d="M0 0h20v15H0z"/></mask><g mask="url(#USA_svg__a)"><path fill="#E31D1C" fill-rule="evenodd" d="M0 0h20v15H0V0z" clip-rule="evenodd"/><path fill="#F7FCFF" fill-rule="evenodd" d="M0 1.25V2.5h20V1.25H0zm0 2.5V5h20V3.75H0zM0 7.5V6.25h20V7.5H0zm0 1.25V10h20V8.75H0zm0 3.75v-1.25h20v1.25H0zM0 15v-1.25h20V15H0z" clip-rule="evenodd"/><path fill="#2E42A5" d="M0 0h11.25v8.75H0z"/><path fill="#F7FCFF" fill-rule="evenodd" d="M1.3 2.717l.662-.461.514.37h-.29l.588.52-.2.73h-.31l-.303-.67-.257.67H.935l.589.52-.224.821.662-.461.514.37h-.29l.588.52-.2.73h-.31l-.303-.67-.257.67H.935l.589.52-.224.821.662-.461.641.461-.199-.82.515-.521H2.68l.531-.37.514.37h-.29l.588.52-.224.821.662-.461.641.461-.199-.82.515-.521H5.18l.531-.37.514.37h-.29l.588.52-.224.821.662-.461.641.461-.199-.82.515-.521H7.68l.531-.37.514.37h-.29l.588.52-.224.821.662-.461.641.461-.199-.82.515-.521h-.655l-.303-.67-.257.67H8.83l-.177-.73.515-.52H8.93l.531-.37.641.461-.199-.82.515-.521h-.655l-.303-.67-.257.67H8.83l-.177-.73.515-.52H8.93l.531-.37.641.461-.199-.82.515-.521h-.655L9.46.706l-.257.67h-.769l.589.52-.2.73h-.31l-.303-.67-.257.67H7.58l-.177-.73.515-.52h-.655L6.96.706l-.257.67h-.769l.589.52-.2.73h-.31l-.303-.67-.257.67H5.08l-.177-.73.515-.52h-.655L4.46.706l-.257.67h-.769l.589.52-.2.73h-.31l-.303-.67-.257.67H2.58l-.177-.73.515-.52h-.655L1.96.706l-.257.67H.935l.589.52-.224.821zm7.525 2.409l.199-.73-.589-.52h.291l-.514-.37-.53.37h.237l-.515.52.177.73h.373l.257-.67.303.67h.31zm-1.349 0l-.514-.37-.53.37h.237l-.515.52.177.73h.373l.257-.67.303.67h.31l.2-.73-.589-.52h.291zm-2.202.52l-.2.73h-.31l-.303-.67-.257.67H3.83l-.177-.73.515-.52H3.93l.531-.37.514.37h-.29l.588.52zm.18-.52H5.08l-.177-.73.515-.52H5.18l.531-.37.514.37h-.29l.588.52-.2.73h-.31l-.303-.67-.257.67zm-1.63 0l.2-.73-.589-.52h.291l-.514-.37-.53.37h.237l-.515.52.177.73h.373l.257-.67.303.67h.31zm3.95-1.98l-.2.73h-.31l-.303-.67-.257.67H6.33l-.177-.73.515-.52H6.43l.531-.37.514.37h-.29l.588.52zm-2.798-.52l-.514-.37-.53.37h.237l-.515.52.177.73h.373l.257-.67.303.67h.31l.2-.73-.589-.52h.291z" clip-rule="evenodd"/></g></svg>
